X:0232
T:Miss Jamieson's Jig.
M:2/4
L:1/16
Q:1/4=120
I: :: ::
Z:Jack Campin * www.campin.me.uk * 2009
K:D
D6 A2|F2A2 d2f2|(ed)(ef) g2f2|  (ed)(cB) (AG)(FE)|\
D6 A2|F2A2 d2f2|(ede).f  g2f2|{f}e8             :|
a6 b2|g6     a2| f6        gf|   edcB     AGFE   |\
D6 A2|F2A2 d2f2| B2gf    fedc|   d8             :|

